icons/glyphs/glyph-cpu.svg

<?xml version="1.0" encoding="UTF-8" standalone="no"?><svg height="16" viewBox="0 0 4.2333333 4.2333333" width="16" xmlns="http://www.w3.org/2000/svg"><sodipodi:namedview/><metadata><rdf:RDF><cc:Work><dc:format>image/svg+xml</dc:format><dc:type/><dc:title/></cc:Work></rdf:RDF></metadata><path d="m .98699382 0v .38068648h-.5153691c-.050456 0-.0909387.0404828-.0909387.0909381v.51536922h-.38068625v.3151481h.3806864v.6569506h-.38068612v.315148h.38068639v.6569505h-.38068639v.3151484h.38068639v.5153691c0 .050455.0404827.090937.0909387.090937h.51536908v.3806878h.31514828v-.3806864h.6569503v.3806864h.3151482v-.3806864h.6569504v.3806864h.3151482v-.3806864h.5153691c.050455 0 .090937-.040483.090937-.090939v-.5153685h.3806878v-.3151484h-.3806864v-.6569505h.3806864v-.315148h-.3806864v-.6569506h.3806864v-.3151481h-.3806864v-.51536925c0-.0504552-.040483-.0909381-.090939-.0909381h-.5153685v-.38068645h-.3151482v.38068648h-.6569508v-.38068648h-.3151482v.38068648h-.6216726v-.38068648zm1.43039628 1.0132405.2008667.034809.016549.2060024c.033791.01678.065731.037053.095297.060488l.1934483-.073613.117552.166628-.1341007.1569269c.01204.035939.020264.073045.024539.1107053l.1883118.084456-.034237.2014371-.2060025.015979c-.016929.034015-.037395.066148-.061061.095868l.0736138.1928762-.1666281.1175525-.1563563-.1335302c-.036123.01208-.073423.020307-.111276.024536l-.0850256.1883132-.2002959-.034809-.0165497-.2060024c-.0339887-.0167457-.0661217-.0370194-.095868-.0604884l-.1928777.0730427-.1175526-.1666279.1335308-.1569268c-.01204-.0359386-.020264-.073044-.0245373-.1107053l-.1883125-.0844547.0348093-.2008666.2060023-.0159787c.016925-.034015.037392-.066148.061059-.095868l-.0736137-.1934483.166628-.1175533.1569271.1341015c.035939-.01204.073045-.020264.1107053-.024537zm-.0216853.5135793c-.102824-.0001096-.1907748.0738667-.208285.1751877-.0200053.1148734.056892.2242168.1717638.2442352.1150613.019984.2244921-.0572306.2442356-.1723341.019984-.1150613-.0572307-.2244924-.1723346-.2442356-.011693-.001933-.023527-.002893-.0353798-.0028532zm-.8302867.5489589.1666281.031385.01084.1711932c.02822.014651.054808.032248.079319.052499l.1614929-.058776.095868.140378-.1141293.1289654c.00951.030071.015808.061055.018831.092444l.1563564.073613-.031956.1666279-.1711932.01084c-.014684.0280244-.032281.0544174-.052499.0787494l.058776.162063-.1403783.095297-.1289653-.1135573c-.030069.00951-.061055.015812-.092444.018835l-.0730431.1557805-.1671988-.0313853-.0108427-.1717636c-.027996-.014504-.0543906-.0319093-.0787493-.051928l-.1620628.058776-.09529728-.1409492.11412928-.1289653c-.00947-.029884-.015771-.060676-.018831-.091873l-.15635258-.07361.0313853-.1666279.17176378-.01084c.014684-.028021.03228-.054417.052499-.078749l-.058776-.1620626.1403786-.095868.1289653.114128c.030069-.00951.061055-.015808.092444-.018831zm1.2639761.3246966.1808939.072472-.022256.1369542c.00953.00933.018492.019244.026819.029672.00807.010387.015497.021244.022256.032527l.138096.011413.027389.1928774-.129536.049075c-.00687.025647-.016835.050369-.029672.073613l.059347.1255413-.1529327.119836-.1072813-.087309c-.025712.0068-.052156.01044-.078749.01084l-.0787473.1141264-.1808942-.072472.0222547-.1369547c-.00955-.00933-.018495-.019244-.02682-.029672-.00805-.010387-.015496-.021248-.022255-.032527l-.138096-.011413-.027391-.1928771.129536-.049076c.00687-.025651.016833-.050369.029673-.073613l-.059346-.1255417.1529326-.119836.1072813.087308c.025712-.0068.052156-.01044.078749-.01084zm-1.2919374.102716c-.035387-.0001348-.069989.010413-.099292.030244-.080331.054545-.1012747.1638621-.046793.2442355.054572.080687.1643232.1016653.2448063.046793.080492-.054753.101208-.1644718.046221-.2448056-.032765-.047811-.086983-.076413-.1449423-.076467zm1.2103352.1917365c-.0295.00187-.057747.012613-.081031.030815-.063913.049899-.075164.1422115-.025109.2060021.0499.063913.1422113.075165.2060021.025107.063913-.0499.075164-.1422117.025107-.2060021-.026804-.034107-.067345-.054584-.1107054-.055923-.00475-.0002318-.00951-.0002318-.014267 0z" fill="#d0d0d0" opacity=".98" stroke-linejoin="round" stroke-width=".256885"/></svg>

<?xml version="1.0" encoding="UTF-8" standalone="no"?>
<!-- Created with Inkscape (http://www.inkscape.org/) -->

<svg
   xmlns:dc="http://purl.org/dc/elements/1.1/"
   xmlns:cc="http://creativecommons.org/ns#"
   xmlns:rdf="http://www.w3.org/1999/02/22-rdf-syntax-ns#"
   xmlns:svg="http://www.w3.org/2000/svg"
   xmlns="http://www.w3.org/2000/svg"
   xmlns:sodipodi="http://sodipodi.sourceforge.net/DTD/sodipodi-0.dtd"
   xmlns:inkscape="http://www.inkscape.org/namespaces/inkscape"
   width="16"
   height="16"
   viewBox="0 0 4.2333333 4.2333333"
   version="1.1"
   id="svg8"
   inkscape:version="0.92+devel (4546dc857e, 2017-07-25, custom)"
   sodipodi:docname="glyph-cpu.svg">
  <defs
     id="defs2" />
  <sodipodi:namedview
     id="base"
     pagecolor="#002466"
     bordercolor="#ffffff"
     borderopacity="0.38039216"
     inkscape:pageopacity="1"
     inkscape:pageshadow="2"
     inkscape:zoom="27.375"
     inkscape:cx="8"
     inkscape:cy="8"
     inkscape:document-units="px"
     inkscape:current-layer="svg8"
     inkscape:document-rotation="0"
     showgrid="false"
     inkscape:showpageshadow="false"
     borderlayer="true"
     inkscape:window-width="1920"
     inkscape:window-height="1051"
     inkscape:window-x="0"
     inkscape:window-y="0"
     inkscape:window-maximized="1"
     units="px" />
  <metadata
     id="metadata5">
    <rdf:RDF>
      <cc:Work
         rdf:about="">
        <dc:format>image/svg+xml</dc:format>
        <dc:type
           rdf:resource="http://purl.org/dc/dcmitype/StillImage" />
        <dc:title></dc:title>
      </cc:Work>
    </rdf:RDF>
  </metadata>
  <path
     inkscape:label="#1"
     style="opacity:0.97999998;fill:#d0d0d0;stroke-width:0.25688493;stroke-linejoin:round"
     d="m 0.98699382,0 v 0.38068648 h -0.5153691 c -0.050456,0 -0.0909387,0.0404828 -0.0909387,0.0909381 V 0.9869938 H -2.25e-7 V 1.3021419 H 0.38068617 V 1.9590925 H 4.5e-8 v 0.315148 H 0.38068644 V 2.931191 H 4.5e-8 V 3.2463394 H 0.38068644 v 0.5153691 c 0,0.050455 0.0404827,0.090937 0.0909387,0.090937 H 0.98699422 V 4.2333333 H 1.3021425 V 3.8526469 H 1.9590928 V 4.2333333 H 2.274241 V 3.8526469 H 2.9311914 V 4.2333333 H 3.2463396 V 3.8526469 h 0.5153691 c 0.050455,0 0.090937,-0.040483 0.090937,-0.090939 V 3.2463394 H 4.2333335 V 2.931191 H 3.8526471 V 2.2742405 H 4.2333335 V 1.9590925 H 3.8526471 V 1.3021419 H 4.2333335 V 0.9869938 H 3.8526471 V 0.47162455 c 0,-0.0504552 -0.040483,-0.0909381 -0.090939,-0.0909381 H 3.2463396 V 0 H 2.9311914 V 0.38068648 H 2.2742406 V 0 H 1.9590924 V 0.38068648 H 1.3374198 V 0 Z m 1.43039628,1.0132405 0.2008667,0.034809 0.016549,0.2060024 c 0.033791,0.01678 0.065731,0.037053 0.095297,0.060488 l 0.1934483,-0.073613 0.117552,0.166628 -0.1341007,0.1569269 c 0.01204,0.035939 0.020264,0.073045 0.024539,0.1107053 l 0.1883118,0.084456 -0.034237,0.2014371 -0.2060025,0.015979 c -0.016929,0.034015 -0.037395,0.066148 -0.061061,0.095868 L 2.8921665,2.2658034 2.7255384,2.3833559 2.5691821,2.2498257 c -0.036123,0.01208 -0.073423,0.020307 -0.111276,0.024536 L 2.3728805,2.4626749 2.1725846,2.4278659 2.1560349,2.2218635 C 2.1220462,2.2051178 2.0899132,2.1848441 2.0601669,2.1613751 L 1.8672892,2.2344178 1.7497366,2.0677899 1.8832674,1.9108631 C 1.8712274,1.8749245 1.8630034,1.8378191 1.8587301,1.8001578 L 1.6704176,1.7157031 1.7052269,1.5148365 1.9112292,1.4988578 c 0.016925,-0.034015 0.037392,-0.066148 0.061059,-0.095868 L 1.8986745,1.2095415 2.0653025,1.0919882 2.2222296,1.2260897 c 0.035939,-0.01204 0.073045,-0.020264 0.1107053,-0.024537 z M 2.3957048,1.5268198 C 2.2928808,1.5267102 2.20493,1.6006865 2.1874198,1.7020075 2.1674145,1.8168809 2.2443118,1.9262243 2.3591836,1.9462427 2.4742449,1.9662267 2.5836757,1.8890121 2.6034192,1.7739086 2.6234032,1.6588473 2.5461885,1.5494162 2.4310846,1.529673 2.4193916,1.52774 2.4075576,1.52678 2.3957048,1.5268198 Z m -0.8302867,0.5489589 0.1666281,0.031385 0.01084,0.1711932 c 0.02822,0.014651 0.054808,0.032248 0.079319,0.052499 l 0.1614929,-0.058776 0.095868,0.140378 -0.1141293,0.1289654 c 0.00951,0.030071 0.015808,0.061055 0.018831,0.092444 l 0.1563564,0.073613 -0.031956,0.1666279 -0.1711932,0.01084 C 1.922791,2.9129726 1.905194,2.9393656 1.884976,2.9636976 L 1.943752,3.1257606 1.8033737,3.2210576 1.6744084,3.1075003 c -0.030069,0.00951 -0.061055,0.015812 -0.092444,0.018835 L 1.5089213,3.2821158 1.3417225,3.2507305 1.3308798,3.0789669 C 1.3028838,3.0644629 1.2764892,3.0470576 1.2521305,3.0270389 L 1.0900677,3.0858149 0.99477042,2.9448657 1.1088997,2.8159004 c -0.00947,-0.029884 -0.015771,-0.060676 -0.018831,-0.091873 l -0.15635258,-0.07361 0.0313853,-0.1666279 0.17176378,-0.01084 c 0.014684,-0.028021 0.03228,-0.054417 0.052499,-0.078749 l -0.058776,-0.1620626 0.1403786,-0.095868 0.1289653,0.114128 c 0.030069,-0.00951 0.061055,-0.015808 0.092444,-0.018831 z m 1.2639761,0.3246966 0.1808939,0.072472 -0.022256,0.1369542 c 0.00953,0.00933 0.018492,0.019244 0.026819,0.029672 0.00807,0.010387 0.015497,0.021244 0.022256,0.032527 l 0.138096,0.011413 0.027389,0.1928774 -0.129536,0.049075 c -0.00687,0.025647 -0.016835,0.050369 -0.029672,0.073613 l 0.059347,0.1255413 -0.1529327,0.119836 -0.1072813,-0.087309 c -0.025712,0.0068 -0.052156,0.01044 -0.078749,0.01084 L 2.6850208,3.2821136 2.5041266,3.2096416 2.5263813,3.0726869 c -0.00955,-0.00933 -0.018495,-0.019244 -0.02682,-0.029672 -0.00805,-0.010387 -0.015496,-0.021248 -0.022255,-0.032527 l -0.138096,-0.011413 -0.027391,-0.1928771 0.129536,-0.049076 c 0.00687,-0.025651 0.016833,-0.050369 0.029673,-0.073613 l -0.059346,-0.1255417 0.1529326,-0.119836 0.1072813,0.087308 c 0.025712,-0.0068 0.052156,-0.01044 0.078749,-0.01084 z m -1.2919374,0.102716 c -0.035387,-1.348e-4 -0.069989,0.010413 -0.099292,0.030244 -0.080331,0.054545 -0.1012747,0.1638621 -0.046793,0.2442355 0.054572,0.080687 0.1643232,0.1016653 0.2448063,0.046793 0.080492,-0.054753 0.101208,-0.1644718 0.046221,-0.2448056 -0.032765,-0.047811 -0.086983,-0.076413 -0.1449423,-0.076467 z M 2.747792,2.6949278 c -0.0295,0.00187 -0.057747,0.012613 -0.081031,0.030815 -0.063913,0.049899 -0.075164,0.1422115 -0.025109,0.2060021 0.0499,0.063913 0.1422113,0.075165 0.2060021,0.025107 0.063913,-0.0499 0.075164,-0.1422117 0.025107,-0.2060021 -0.026804,-0.034107 -0.067345,-0.054584 -0.1107054,-0.055923 -0.00475,-2.318e-4 -0.00951,-2.318e-4 -0.014267,0 z"
     id="rect811"
     inkscape:connector-curvature="0"
     sodipodi:nodetypes="ccssccccccccccccssccccccccccccssccccccccccccssccccccccccccccccccccccccccccccccccccccccccccccccccccccccccccccccccccccccccccccccccccccccccccccccccccccccccccccccccccccccccccc" />
</svg>
